X:1
T:Mr Masson, Manse of Botriphnie
T:Mr Masson, Manse of Botriphnie
T:William Marshall
C:William Marshall
%%score { ( 1 2 ) ( 3 4 ) }
L:1/8
M:4/4
K:Bb
V:1 treble 
V:2 treble 
V:3 bass 
V:4 bass 
V:1
 B | B,<B-B>!wedge!c{Bc} d>cB<F | G<BF<B TD>CB,D | C<c-c>d{cd} [Ge]>dcB | GBcd ecdf | %5
 d<B(B>c){Bc} d>cB<F | G<BF<B TD>C B,<D | EGEC DFDB, | C>DE>F{EF} G2 G |] g | fBdf Bfdf | %11
 bBdf B>c{Bc}dB | gceg cgeg | (c>d)ef Tg2 ga/b/ | fBdf Bfdf | bBdf B>c{Bc}dB | GBFB EBDB | %17
 C>DE>F{EF} G2 G |] %18
V:2
 x | x8 | x8 | x2 (G2 x4) | x8 | x8 | x8 | x8 | x7 |] x | x8 | x8 | x8 | x8 | x8 | x8 | x8 | x7 |] %18
V:3
 z | [Bdb]2 [Bdb]2 [Bdb]2 [Bdb]2 | [Beb]2 [Bdb]2 fe d2 | [Ee]2 [Ee][Dd] [Cc]2 [Dd]2 | %4
 [Ee]2 [Ee]2 [Cc]2 [B,B]2 | [Bdb]2 [Bdb]2 [Bdb]2 [Bdb]2 | [Beb]2 [Bdb]2 [Bf]2 [_A_a]2 | %7
 [Gg]2 [Aa]2 [Bb]2 [Bf]2 | [Ff]2 [Ff]2 [Ee]2 [Ee] |] z | [db]2 [db]2 [db]2 [db]2 | %11
 [db]2 [db]2 [db]>[fc'] [bd']2 | [ee']2 [ee']2 [ee']2 [ee']2 | [Ee][Dd][Cc][Dd] [Ee]2 [Ee]2 | %14
 [B,B]2 [B,B]2 [B,B]2 [B,B]2 | [B,B]2 [B,B]2 [Dd][Cc] [B,B]2 | [Ee]2 [Dd]2 [Cc]2 [B,B]2 | %17
 [Ff]2 [Ff]2 [Ee]2 [Ee] |] %18
V:4
 x | x8 | x4 B,,2 B,,2 | x8 | x8 | x8 | x8 | x8 | x7 |] x | x8 | x8 | x8 | x8 | x8 | x8 | x8 | %17
 x7 |] %18

